X:1
%%scale .50
T:Feliz Navidad
C:/Jose Feliciano, 1970
M:4/4
L:1/4
K:C
%%titlefont Times-Bold 14
%%gchordfont Helvetica-Bold 12.0
%%partsfont Times-Roman 11.0
%%vocalfont Times-Bold 13.0
%%wordsfont Times-Roman 12.0
%%StrTabFont Times-Bold 14.0
%%stretchstaff yes
|G c B/2c/2|:"Dm"A4-|"G7"A3/2 A/2 d c/2A/2
w:Fe-liz Na-vi-dad,_ Fe-liz Na-vi-
|"C"G4-|G3/2 G/2 c B/2c/2|"Dm"A3/2 F/2 A A
w:dad,_ Fe-liz Na-vi-dad, Pros-pe-ro
|"G7"G/2G/2A/2G/2 F F|1 "C"E4-|E3/2 G/2 c B/2c/2:|2 "C"E4||
w:a-no y fe-li-ci-dad,_ Fe-liz Na-vi- dad.
|"C"e/2e/2e/2e/2 d3/2 c/2|"F"c A A c
w:I want to wish you a Mer-ry Christ-mas,
|"G7"d d/2d/2 d c/2A/2|"C"A G ^F G
w:with lots of pres-ents to make you hap-py.
|e/2e/2e/2e/2 d3/2 c|"F"c A A/2A/2d/2c/2
w:I want to wish you a mer-ry Christ-mas from the
|"G7"B B c d|(3"C"d/2e/2d/2 "F"c3
w:bot-tom of my heart.___
|"C"e e/2e/2 e d/2c/2|"F"c A ^G A
w:I want to wish you a Mer-ry Christ-mas,
|"G7"d d/2d/2 d c/2A/2|"C"A G ^F G
w:with mis-tle-toe and_ lots of cheer._
|e e/2e/2 e/2d/2 c|"F"c A A d/2c/2
w:with lots of laugh-ter through-out the years from the
|"G7"B B c d|(3"C"d/2e/2d/2 "F"c3-
w:bot-tom of my heart.____
|"C"c3/2 G/2 c B/2c/2|"Dm7"A4-|"G7"A3/2 A/2 d c/2A/2
w:_ Fe-liz Na-vi-dad_ Fe-liz Na-vi-
|"C"G4-|G3/2 G/2 c B/2c/2|"Dm"A3/2 F/2 A A
w:dad._ Fe-liz Na-vi-dad. Pros-pe-ro
|"G7"G/2G/2A/2G/2 F F|"C"E4-|E||
w:a-no y fi-li-ci-dad._
